storage/app/icons/phosphoricons/light/number-square-nine-light.svg

<svg xmlns="http://www.w3.org/2000/svg" viewBox="0 0 256 256" fill="currentColor"><path d="M208,34H48A14,14,0,0,0,34,48V208a14,14,0,0,0,14,14H208a14,14,0,0,0,14-14V48A14,14,0,0,0,208,34Zm2,174a2,2,0,0,1-2,2H48a2,2,0,0,1-2-2V48a2,2,0,0,1,2-2H208a2,2,0,0,1,2,2ZM145,78.55A34,34,0,1,0,127.94,142a33.56,33.56,0,0,0,5.67-.49l-18.76,31.42a6,6,0,0,0,10.3,6.16L157.45,125A34,34,0,0,0,145,78.55ZM147.06,119v0A22,22,0,1,1,139,89,22,22,0,0,1,147.05,119Z"/></svg>

<svg xmlns="http://www.w3.org/2000/svg" fill="currentColor" viewBox="0 0 256 256"><path d="M208 34H48a14 14 0 0 0-14 14v160a14 14 0 0 0 14 14h160a14 14 0 0 0 14-14V48a14 14 0 0 0-14-14m2 174a2 2 0 0 1-2 2H48a2 2 0 0 1-2-2V48a2 2 0 0 1 2-2h160a2 2 0 0 1 2 2ZM145 78.55A34 34 0 1 0 127.94 142a33.6 33.6 0 0 0 5.67-.49l-18.76 31.42a6 6 0 0 0 10.3 6.16l32.3-54.09A34 34 0 0 0 145 78.55m2.06 40.45A22 22 0 1 1 139 89a22 22 0 0 1 8.05 30Z"/></svg>
